X:1
T:Symphony No. 8 - 1st movement
T:OSSO N. 1 
T:Dvorak
L:1/8
M:4/4
K:G
V:1 treble nm="Violin" snm="Vln."
V:1
 D z/ D/ DD DFDE | F z/ F/ FF FAFA |!<(! c z/ c/ cc ceGc!<)! | dfAd egce | fadf gc'eg | %5
 d'e'ac' d'e'ac' | d'e'ac' d'e'ac' | d'e'ac' d'e'ac' | d' z/ c'/ e' z/ a/ c' z/ e/ a z/ c/ | %9
 e z/ A/ c z/ E/ A z/ D/ (7:4:7d/c/B/A/G/F/E/ | D z [Dd] z z4 | z2 z2 z2 z d/_e/ | %12
 gg gf/g/ bb b^a/b/ | e'^d'/e'/ e'd'/e'/ f'^e'/f'/ g'f'/g'/ | b'2 b'/g'/d'/b/ e'd'bg | %15
 g/f/e'/d'/ c'/a/f/d/ ^c/d/d/^d/ =d/e/e/f/ | [Bg]4 b4 | d' z/ b/ e' z/ b/ e' z/ b/ e' z/ b/ | %18
 d'2 b2 z2 d'2 | f'2 d'2 b2 ^c'>d' | f'4 f' z z2 | z8 | z8 | z8 | z8 | z8 | z8 | z8 | z8 | z8 | %30
 z8 | z8 |] %32

